svgs/thin/users-slash.svg

<svg xmlns="http://www.w3.org/2000/svg" viewBox="0 0 640 512"><!--! Font Awesome Pro 6.3.0 by @fontawesome - https://fontawesome.com License - https://fontawesome.com/license (Commercial License) Copyright 2023 Fonticons, Inc. --><path d="M512 160c44.18 0 80-35.82 80-80S556.2 0 512 0c-44.18 0-80 35.82-80 80S467.8 160 512 160zM512 16c35.29 0 64 28.71 64 64s-28.71 64-64 64s-64-28.71-64-64S476.7 16 512 16zM319.9 128c48.5 0 87.96 39.48 87.96 88c0 11.7-2.396 22.82-6.559 33.04l12.87 10.23C420.2 246.1 423.8 231.5 423.8 216c0-57.44-46.54-104-103.1-104c-23.94 0-45.72 8.424-63.29 22.03l12.78 10.15C283.7 134.1 301 128 319.9 128zM480 192c-5.969 0-11.97 .7031-17.84 2.094c-4.297 1.016-6.953 5.328-5.938 9.625C457.2 208 461.5 210.8 465.8 209.7C470.5 208.6 475.3 208 480 208h76.5C593.7 208 624 240.3 624 280C624 284.4 620.8 288 616.9 288h-166.6l20.13 16h146.5C629.6 304 640 293.2 640 280C640 231.5 602.5 192 556.5 192H480zM493.9 465.8C495 472.2 496 478.6 496 485.3C496 491.2 490.4 496 483.6 496H156.4C149.6 496 144 491.2 144 485.3C144 420.6 200.6 368 270.1 368H369.9c.3926 0 .7559 .1035 1.146 .1074L350.8 352H270.1C191.6 352 128 411.7 128 485.3C128 500.1 140.7 512 156.4 512h327.2C499.3 512 512 500.1 512 485.3c0-1.938-.5195-3.738-.6074-5.654L493.9 465.8zM128 16c35.29 0 64 28.71 64 64c0 .8594-.2207 1.656-.2539 2.508l14.81 11.78C207.4 89.63 208 84.89 208 80C208 35.82 172.2 0 128 0C116.7 0 106 2.393 96.26 6.611l14.97 11.9C116.6 17.04 122.2 16 128 16zM200 296C200 291.6 196.4 288 192 288H23.09C19.19 288 16 284.4 16 280c0-39.7 30.28-72 67.5-72H160c3.768 0 7.531 .6211 11.27 1.318L149.5 192H83.5C37.45 192 0 231.5 0 280C0 293.2 10.36 304 23.09 304H192C196.4 304 200 300.4 200 296zM12.99 1.734c-1.463-1.164-3.217-1.73-4.963-1.73c-2.352 0-4.689 1.027-6.287 3.012c-2.75 3.469-2.172 8.5 1.281 11.25l623.1 496C628.5 511.4 630.2 512 631.1 512c2.344 0 4.688-1.031 6.266-3.016c2.75-3.469 2.172-8.5-1.281-11.25L12.99 1.734z"/></svg>

<svg xmlns="http://www.w3.org/2000/svg" viewBox="0 0 640 512"><!-- Font Awesome Pro 6.0.0-alpha2 by @fontawesome - https://fontawesome.com License - https://fontawesome.com/license (Commercial License) --><path d="M512 160C556.184 160 592 124.182 592 80S556.184 0 512 0C467.82 0 432 35.818 432 80S467.82 160 512 160ZM512 16C547.289 16 576 44.711 576 80S547.289 144 512 144S448 115.289 448 80S476.711 16 512 16ZM319.859 128C368.357 128 407.814 167.477 407.814 216C407.814 227.699 405.418 238.824 401.256 249.045L414.129 259.275C420.203 246.062 423.814 231.494 423.814 216C423.814 158.562 377.273 112 319.859 112C295.918 112 274.139 120.424 256.564 134.031L269.34 144.186C283.662 134.066 301.031 128 319.859 128ZM480 192C474.031 192 468.031 192.703 462.156 194.094C457.859 195.109 455.203 199.422 456.219 203.719C457.219 208 461.5 210.766 465.844 209.656C470.5 208.562 475.266 208 480 208H556.5C593.719 208 624 240.297 624 280C624 284.406 620.812 288 616.906 288H450.266L470.393 304H616.906C629.641 304 640 293.234 640 280C640 231.469 602.547 192 556.5 192H480ZM493.873 465.75C495.039 472.15 496 478.627 496 485.332C496 491.215 490.428 496 483.578 496H156.422C149.572 496 144 491.215 144 485.332C144 420.635 200.574 368 270.113 368H369.887C370.279 368 370.643 368.104 371.033 368.107L350.768 352H270.113C191.631 352 128 411.693 128 485.332C128 500.059 140.727 512 156.422 512H483.578C499.273 512 512 500.059 512 485.332C512 483.395 511.48 481.594 511.393 479.678L493.873 465.75ZM128 16C163.289 16 192 44.711 192 80C192 80.859 191.779 81.656 191.746 82.508L206.561 94.283C207.402 89.633 208 84.893 208 80C208 35.818 172.184 0 128 0C116.713 0 106.002 2.393 96.264 6.611L111.234 18.512C116.613 17.041 122.162 16 128 16ZM200 296C200 291.578 196.422 288 192 288H23.094C19.188 288 16 284.406 16 280C16 240.297 46.281 208 83.5 208H160C163.768 208 167.531 208.621 171.268 209.318L149.48 192H83.5C37.453 192 0 231.469 0 280C0 293.234 10.359 304 23.094 304H192C196.422 304 200 300.422 200 296ZM12.988 1.734C11.525 0.57 9.771 0.004 8.025 0.004C5.674 0.004 3.336 1.031 1.738 3.016C-1.012 6.484 -0.434 11.516 3.02 14.266L627.012 510.266C628.496 511.438 630.246 512 631.996 512C634.34 512 636.684 510.969 638.262 508.984C641.012 505.516 640.434 500.484 636.98 497.734L12.988 1.734Z"/></svg>
